CSETWebApi/CSETWeb_Api/CSETWeb_ApiCore/Diagram/src/main/webapp/img/lib/mscae/dep/SQL_Server_Stretch_DB.svg

<svg xmlns="http://www.w3.org/2000/svg" width="50" height="50"><path d="M45.302 25.945c0-7.08 1.778-13.536 4.698-18.43V6.83H24.657V50H25h1.27l.39-.008.867-.018.465-.016.77-.027.526-.025.7-.034 1.19-.074.583-.044.592-.046.57-.05.58-.054.58-.06.537-.058.585-.07.51-.063.583-.08.48-.067.584-.09.45-.07.59-.1.408-.07.59-.11.38-.074.58-.12.355-.076.568-.13.33-.078.56-.14.295-.077.557-.154.26-.074.552-.167.223-.07.54-.18.2-.07.52-.2.173-.066.5-.203.15-.063c.164-.07.323-.142.477-.214l.127-.06a13.53 13.53 0 0 0 .451-.226l.106-.057a10.95 10.95 0 0 0 .422-.237l.086-.052c.136-.082.267-.165.39-.25l.07-.048c.125-.086.244-.173.356-.26.018-.014.034-.028.052-.042.113-.1.22-.18.318-.273a1.31 1.31 0 0 0 .038-.037c.1-.094.192-.19.277-.285.01-.01.017-.02.026-.03a3.41 3.41 0 0 0 .232-.296c.006-.008.01-.017.017-.025a3 3 0 0 0 .184-.307c.003-.006.006-.013.01-.02.013-.027.02-.054.034-.08-2.802-4.85-4.498-11.164-4.498-18.076z" fill="#0072c6"/><path d="M45.302 25.945c0-7.08 1.778-13.536 4.698-18.43V6.83H24.657V50H25c12.75 0 23.26-2.608 24.796-5.98-2.798-4.85-4.494-11.163-4.494-18.075z" opacity=".15" fill="#fff"/><path d="M0 6.83v.49l.274.82C2.978 12.955 4.6 19.163 4.6 25.945 4.6 32.818 2.933 39.1.164 43.938 1.564 47.348 12.147 50 25 50V6.83H0z" fill="#0072c6"/><path d="M50 6.83c0 3.773-11.194 6.83-25 6.83S0 10.603 0 6.83 11.193 0 25 0s25 3.058 25 6.83" fill="#fff"/><path d="M44.89 6.437c0 2.49-8.905 4.507-19.89 4.507S5.1 8.928 5.1 6.437 14.016 1.93 25 1.93s19.89 2.018 19.89 4.507" fill="#7fba00"/><path d="M40.722 9.19C43.326 8.43 44.9 7.475 44.9 6.44c0-2.49-8.905-4.508-19.9-4.508S5.11 3.95 5.11 6.44c0 1.036 1.565 2 4.168 2.752C12.915 8.127 18.598 7.44 25 7.44s12.083.688 15.722 1.752" fill="#b8d432"/><path d="M18.547 32.354c0 1.122-.407 2-1.22 2.607s-1.938.924-3.373.924c-1.22 0-2.24-.22-3.06-.66v-2.64c.946.803 1.988 1.205 3.126 1.205.55 0 .975-.1 1.275-.33a1.03 1.03 0 0 0 .45-.875c0-.357-.144-.668-.433-.932s-.876-.605-1.76-1.023c-1.804-.846-2.706-2.002-2.706-3.464 0-1.06.393-1.912 1.18-2.553s1.83-.96 3.134-.96c1.155 0 2.1.152 2.87.454v2.466c-.797-.55-1.705-.825-2.722-.825-.5 0-.915.108-1.212.325s-.445.508-.445.87c0 .374.12.68.36.92s.73.535 1.472.887c1.106.523 1.893 1.053 2.364 1.592s.703 1.2.703 2.013zm12.727-2.672c0 1.4-.317 2.6-.95 3.62s-1.523 1.74-2.672 2.153l3.43 3.176H27.62l-2.45-2.747c-1.05-.038-1.998-.316-2.842-.833a5.22 5.22 0 0 1-1.955-2.124c-.46-.9-.7-1.902-.7-3.007 0-1.226.25-2.32.746-3.28s1.197-1.698 2.1-2.215 1.935-.775 3.102-.775c1.088 0 2.063.25 2.924.75s1.528 1.212 2.004 2.136.715 1.972.715 3.143zm-2.804.15c0-1.2-.26-2.146-.784-2.842s-1.237-1.044-2.145-1.044a2.69 2.69 0 0 0-2.219 1.047c-.555.7-.833 1.628-.833 2.788s.272 2.077.816 2.767 1.267 1.035 2.17 1.035c.92 0 1.647-.334 2.186-1.002s.8-1.584.8-2.75zm7.423-5.982v9.667h4.38v2.16H33.23V23.85z" fill="#fff"/></svg>

<?xml version="1.0" encoding="UTF-8" standalone="no"?>
<!-- Generator: Adobe Illustrator 19.1.0, SVG Export Plug-In . SVG Version: 6.00 Build 0)  -->

<svg
   xmlns:dc="http://purl.org/dc/elements/1.1/"
   xmlns:cc="http://creativecommons.org/ns#"
   xmlns:rdf="http://www.w3.org/1999/02/22-rdf-syntax-ns#"
   xmlns:svg="http://www.w3.org/2000/svg"
   xmlns="http://www.w3.org/2000/svg"
   xmlns:sodipodi="http://sodipodi.sourceforge.net/DTD/sodipodi-0.dtd"
   xmlns:inkscape="http://www.inkscape.org/namespaces/inkscape"
   version="1.1"
   id="Layer_1"
   x="0px"
   y="0px"
   width="50"
   height="50"
   viewBox="0 0 50 50"
   enable-background="new 0 0 50 50"
   xml:space="preserve"
   inkscape:version="0.91 r13725"
   sodipodi:docname="SQL_Server_Stretch_DB.svg"><metadata
     id="metadata25"><rdf:RDF><cc:Work
         rdf:about=""><dc:format>image/svg+xml</dc:format><dc:type
           rdf:resource="http://purl.org/dc/dcmitype/StillImage" /><dc:title></dc:title></cc:Work></rdf:RDF></metadata><defs
     id="defs23" /><sodipodi:namedview
     pagecolor="#ffffff"
     bordercolor="#666666"
     borderopacity="1"
     objecttolerance="10"
     gridtolerance="10"
     guidetolerance="10"
     inkscape:pageopacity="0"
     inkscape:pageshadow="2"
     inkscape:window-width="1920"
     inkscape:window-height="1018"
     id="namedview21"
     showgrid="false"
     fit-margin-top="0"
     fit-margin-left="0"
     fit-margin-right="0"
     fit-margin-bottom="0"
     inkscape:zoom="16.059062"
     inkscape:cx="25"
     inkscape:cy="25"
     inkscape:window-x="-8"
     inkscape:window-y="-8"
     inkscape:window-maximized="1"
     inkscape:current-layer="Layer_1" /><path
     d="M 45.302,25.945 C 45.302,18.865 47.08,12.409 50,7.516 L 50,6.831 24.657,6.831 24.657,49.999 25,49.999 C 25.426,49.999 25.85,49.996 26.271,49.99 26.402,49.988 26.531,49.984 26.662,49.982 26.952,49.977 27.242,49.972 27.529,49.964 27.685,49.96 27.839,49.953 27.994,49.948 28.251,49.94 28.509,49.932 28.763,49.921 28.94,49.914 29.114,49.904 29.289,49.896 29.519,49.885 29.751,49.875 29.979,49.862 30.168,49.852 30.355,49.839 30.543,49.827 30.752,49.814 30.963,49.802 31.17,49.788 31.366,49.774 31.559,49.759 31.753,49.744 31.951,49.729 32.149,49.714 32.345,49.698 32.536,49.682 32.725,49.664 32.914,49.647 33.107,49.629 33.302,49.612 33.493,49.593 33.688,49.574 33.88,49.553 34.073,49.532 34.252,49.513 34.432,49.494 34.61,49.474 34.807,49.452 35.001,49.427 35.195,49.404 35.366,49.383 35.537,49.363 35.706,49.341 35.902,49.316 36.095,49.289 36.289,49.262 36.449,49.24 36.61,49.218 36.768,49.195 36.965,49.166 37.158,49.136 37.352,49.106 37.502,49.083 37.653,49.06 37.802,49.035 38.001,49.003 38.196,48.969 38.391,48.935 38.527,48.911 38.665,48.888 38.799,48.864 38.998,48.828 39.193,48.791 39.388,48.753 39.515,48.729 39.643,48.704 39.768,48.679 39.964,48.64 40.156,48.599 40.347,48.559 40.466,48.534 40.585,48.509 40.702,48.483 40.894,48.441 41.082,48.397 41.27,48.353 41.38,48.327 41.491,48.301 41.599,48.275 41.789,48.229 41.975,48.182 42.16,48.134 42.259,48.108 42.358,48.083 42.455,48.057 42.644,48.007 42.829,47.955 43.012,47.903 43.099,47.878 43.186,47.854 43.271,47.829 43.459,47.774 43.642,47.718 43.823,47.662 43.898,47.639 43.972,47.615 44.046,47.592 44.229,47.533 44.409,47.473 44.585,47.413 44.652,47.39 44.719,47.367 44.785,47.344 44.962,47.281 45.135,47.218 45.305,47.154 45.363,47.132 45.421,47.11 45.478,47.088 45.649,47.021 45.816,46.954 45.979,46.885 46.029,46.864 46.079,46.843 46.128,46.822 46.292,46.752 46.451,46.68 46.605,46.608 46.648,46.588 46.69,46.568 46.732,46.548 46.887,46.474 47.038,46.398 47.183,46.322 47.219,46.303 47.254,46.284 47.289,46.265 47.435,46.187 47.576,46.108 47.711,46.028 47.74,46.011 47.768,45.993 47.797,45.976 47.933,45.894 48.064,45.811 48.188,45.726 48.211,45.71 48.234,45.694 48.257,45.678 48.382,45.592 48.501,45.505 48.613,45.417 48.631,45.403 48.647,45.389 48.665,45.375 48.778,45.285 48.884,45.194 48.983,45.102 48.996,45.09 49.008,45.078 49.021,45.065 49.12,44.971 49.213,44.876 49.298,44.78 49.307,44.77 49.315,44.759 49.324,44.749 49.409,44.651 49.487,44.553 49.556,44.453 49.562,44.445 49.567,44.436 49.573,44.428 49.642,44.326 49.704,44.224 49.757,44.121 49.76,44.115 49.763,44.108 49.766,44.102 49.779,44.075 49.787,44.048 49.8,44.021 46.998,39.171 45.302,32.857 45.302,25.945 Z"
     id="path3"
     inkscape:connector-curvature="0"
     style="fill:#0072c6" /><path
     enable-background="new    "
     d="M 45.302,25.945 C 45.302,18.865 47.08,12.409 50,7.516 L 50,6.831 24.657,6.831 24.657,49.999 25,49.999 C 37.75,49.999 48.26,47.391 49.796,44.02 46.998,39.171 45.302,32.857 45.302,25.945 Z"
     id="path5"
     inkscape:connector-curvature="0"
     style="opacity:0.15;fill:#ffffff" /><path
     d="M 0,6.831 0,7.322 C 0.096,7.587 0.182,7.87 0.274,8.143 2.978,12.955 4.61,19.163 4.61,25.945 4.61,32.818 2.933,39.1 0.164,43.938 1.564,47.348 12.147,50 25,50 L 25,6.831 0,6.831 Z"
     id="path7"
     inkscape:connector-curvature="0"
     style="fill:#0072c6" /><path
     d="M 50,6.831 C 50,10.604 38.806,13.662 25,13.662 11.194,13.662 0,10.603 0,6.831 0,3.059 11.193,0 25,0 38.807,0 50,3.058 50,6.831"
     id="path9"
     inkscape:connector-curvature="0"
     style="fill:#ffffff" /><path
     d="M 44.889,6.437 C 44.889,8.928 35.984,10.944 25,10.944 14.016,10.944 5.11,8.928 5.11,6.437 5.11,3.947 14.016,1.93 25,1.93 35.984,1.93 44.889,3.948 44.889,6.437"
     id="path11"
     inkscape:connector-curvature="0"
     style="fill:#7fba00" /><path
     d="M 40.722,9.191 C 43.326,8.429 44.89,7.475 44.89,6.439 44.89,3.948 35.985,1.931 25,1.931 14.016,1.931 5.111,3.949 5.111,6.439 5.111,7.475 6.676,8.429 9.279,9.191 12.915,8.127 18.598,7.439 25,7.439 31.404,7.439 37.083,8.127 40.722,9.191"
     id="path13"
     inkscape:connector-curvature="0"
     style="fill:#b8d432" /><path
     d="M 18.547,32.354 C 18.547,33.476 18.14,34.345 17.326,34.961 16.512,35.577 15.388,35.885 13.953,35.885 12.732,35.885 11.712,35.665 10.892,35.225 L 10.892,32.585 C 11.838,33.388 12.88,33.79 14.018,33.79 14.568,33.79 14.993,33.68 15.293,33.46 15.593,33.24 15.743,32.949 15.743,32.585 15.743,32.228 15.599,31.917 15.31,31.653 15.021,31.389 14.434,31.048 13.549,30.63 11.745,29.784 10.843,28.628 10.843,27.166 10.843,26.105 11.236,25.254 12.023,24.613 12.809,23.973 13.854,23.652 15.157,23.652 16.312,23.652 17.268,23.804 18.028,24.106 L 18.028,26.572 C 17.231,26.022 16.323,25.747 15.306,25.747 14.795,25.747 14.391,25.855 14.094,26.072 13.797,26.29 13.649,26.58 13.649,26.942 13.649,27.316 13.768,27.623 14.008,27.862 14.247,28.101 14.738,28.397 15.48,28.749 16.586,29.272 17.373,29.802 17.844,30.341 18.312,30.881 18.547,31.552 18.547,32.354 Z"
     id="path15"
     inkscape:connector-curvature="0"
     style="fill:#ffffff" /><path
     d="M 31.274,29.682 C 31.274,31.073 30.957,32.281 30.325,33.303 29.692,34.326 28.802,35.043 27.653,35.456 L 31.084,38.632 27.62,38.632 25.17,35.885 C 24.12,35.847 23.172,35.569 22.328,35.052 21.484,34.536 20.832,33.827 20.373,32.928 19.914,32.029 19.684,31.026 19.684,29.921 19.684,28.695 19.933,27.602 20.43,26.642 20.928,25.682 21.627,24.944 22.529,24.427 23.431,23.911 24.464,23.652 25.631,23.652 26.719,23.652 27.694,23.902 28.555,24.403 29.415,24.903 30.083,25.615 30.559,26.539 31.036,27.463 31.274,28.511 31.274,29.682 Z M 28.47,29.831 C 28.47,28.632 28.209,27.685 27.686,26.989 27.163,26.293 26.449,25.945 25.541,25.945 24.617,25.945 23.878,26.294 23.322,26.992 22.767,27.691 22.489,28.62 22.489,29.78 22.489,30.935 22.761,31.857 23.305,32.547 23.85,33.237 24.572,33.582 25.474,33.582 26.393,33.582 27.121,33.248 27.66,32.58 28.2,31.913 28.47,30.996 28.47,29.831 Z"
     id="path17"
     inkscape:connector-curvature="0"
     style="fill:#ffffff" /><polygon
     points="35.893,23.851 35.893,33.518 40.273,33.518 40.273,35.679 33.229,35.679 33.229,23.851 "
     id="polygon19"
     style="fill:#ffffff" /></svg>
